X:82
T:Polska efter August Bohlin
T:(SvL Uppland nr. 82)
B:Svenska Låtar Uppland nr 82
Z:Nils L
R:Polska
O:Uppland
S:efter August Bohlin
N:"Låten gick under namnet 'Kaloanders polska'."
M:3/4
L:1/16
K:G
D2B2 B2GB (dc)Bc | A2AA (FG)AF G4 | D2>G2 B2GB d2df | a2a2 (gf)ef g4 ::
{cdc}B2Bd g2gd B2Bd | c2ce g2ge c2ce | (dc)Bd g2gd B2Bd | c2ce g2ge c2ce | 
d2>f2 {/f}a2af dfaf | g2bg dgbg d2B2 | c2ec Acec A2FA | (cA)FA G8 :|

